gdaestudio/WebSite/assets/img/icons/estudio.svg

<svg xmlns="http://www.w3.org/2000/svg" xmlns:xlink="http://www.w3.org/1999/xlink" version="1.1" x="0px" y="0px" viewBox="0 0 66 82.5" enable-background="new 0 0 66 66" xml:space="preserve"><g><path fill="#000000" d="M65,15.3H53.9l9.7-5.9c2.4-1.4,3.2-4.6,1.7-7c-1.5-2.4-4.6-3.1-7-1.7L34.4,15.3H10.6V7.7c0-0.6-0.5-1-1-1   C4.3,6.7,0,11,0,16.3v40.2C0,61.7,4.3,66,9.6,66H65c0.6,0,1-0.4,1-1V16.3C66,15.7,65.6,15.3,65,15.3z M32.5,19.1l2.9,4.7l-9.8,2.7   L32.5,19.1z M37.3,23l-3.2-5.2L54.2,5.6l3.2,5.2L37.3,23z M59.3,2.4c1.4-0.9,3.3-0.4,4.2,1c0.9,1.4,0.4,3.3-1,4.2l-3.5,2.1   l-3.2-5.2L59.3,2.4z M31.5,17.3l-9.8,10.5c-0.3,0.3-0.4,0.8-0.1,1.2c0.2,0.4,0.7,0.6,1.1,0.4l14.5-4c0,0,0,0,0,0   c0.1,0,0.2-0.1,0.2-0.1l11.3-6.9v18.6H10.6V17.3H31.5z M2,16.3c0-3.8,2.9-7,6.6-7.5v38.2c-2.7,0.3-5,1.7-6.6,3.7V16.3z M2,56.4   c0-4.2,3.4-7.6,7.6-7.6c0.6,0,1-0.4,1-1v-8.9h39.2c0.6,0,1-0.4,1-1V17.3H64v12.4h-8.7c-0.6,0-1,0.4-1,1c0,0.6,0.4,1,1,1H64v14.2   H42.4c-0.6,0-1,0.4-1,1V64H21.8V47.9h13.8c0.6,0,1-0.4,1-1c0-0.6-0.4-1-1-1H20.8c-0.6,0-1,0.4-1,1V64H9.6C5.4,64,2,60.6,2,56.4z    M43.4,64V47.9H64V64H43.4z"/></g><text x="0" y="81" fill="#000000" font-size="5px" font-weight="bold" font-family="'Helvetica Neue', Helvetica, Arial-Unicode, Arial, Sans-serif">Created by Vectors Market</text><text x="0" y="86" fill="#000000" font-size="5px" font-weight="bold" font-family="'Helvetica Neue', Helvetica, Arial-Unicode, Arial, Sans-serif">from the Noun Project</text></svg>

<?xml version="1.0" encoding="UTF-8" standalone="no"?>
<svg
   xmlns:dc="http://purl.org/dc/elements/1.1/"
   xmlns:cc="http://creativecommons.org/ns#"
   xmlns:rdf="http://www.w3.org/1999/02/22-rdf-syntax-ns#"
   xmlns:svg="http://www.w3.org/2000/svg"
   xmlns="http://www.w3.org/2000/svg"
   xmlns:sodipodi="http://sodipodi.sourceforge.net/DTD/sodipodi-0.dtd"
   xmlns:inkscape="http://www.inkscape.org/namespaces/inkscape"
   version="1.1"
   x="0px"
   y="0px"
   viewBox="0 0 66.059975 66.015572"
   enable-background="new 0 0 66 66"
   xml:space="preserve"
   id="svg83"
   sodipodi:docname="estudio.svg"
   width="66.059975"
   height="66.015572"
   inkscape:version="0.92.2 2405546, 2018-03-11"><metadata
     id="metadata89"><rdf:RDF><cc:Work
         rdf:about=""><dc:format>image/svg+xml</dc:format><dc:type
           rdf:resource="http://purl.org/dc/dcmitype/StillImage" /><dc:title></dc:title></cc:Work></rdf:RDF></metadata><defs
     id="defs87" /><sodipodi:namedview
     pagecolor="#ffffff"
     bordercolor="#666666"
     borderopacity="1"
     objecttolerance="10"
     gridtolerance="10"
     guidetolerance="10"
     inkscape:pageopacity="0"
     inkscape:pageshadow="2"
     inkscape:window-width="688"
     inkscape:window-height="716"
     id="namedview85"
     showgrid="false"
     fit-margin-top="0"
     fit-margin-left="0"
     fit-margin-right="0"
     fit-margin-bottom="0"
     inkscape:zoom="5.7212121"
     inkscape:cx="32.782005"
     inkscape:cy="54.235459"
     inkscape:window-x="12"
     inkscape:window-y="36"
     inkscape:window-maximized="0"
     inkscape:current-layer="svg83" /><g
     id="g77"
     transform="translate(0,0.01556869)"><path
       d="M 65,15.3 H 53.9 L 63.6,9.4 C 66,8 66.8,4.8 65.3,2.4 63.8,0 60.7,-0.7 58.3,0.7 L 34.4,15.3 H 10.6 V 7.7 c 0,-0.6 -0.5,-1 -1,-1 C 4.3,6.7 0,11 0,16.3 V 56.5 C 0,61.7 4.3,66 9.6,66 H 65 c 0.6,0 1,-0.4 1,-1 V 16.3 c 0,-0.6 -0.4,-1 -1,-1 z m -32.5,3.8 2.9,4.7 -9.8,2.7 z m 4.8,3.9 -3.2,-5.2 20.1,-12.2 3.2,5.2 z m 22,-20.6 c 1.4,-0.9 3.3,-0.4 4.2,1 0.9,1.4 0.4,3.3 -1,4.2 L 59,9.7 55.8,4.5 Z M 31.5,17.3 21.7,27.8 c -0.3,0.3 -0.4,0.8 -0.1,1.2 0.2,0.4 0.7,0.6 1.1,0.4 l 14.5,-4 c 0,0 0,0 0,0 0.1,0 0.2,-0.1 0.2,-0.1 L 48.7,18.4 V 37 H 10.6 V 17.3 Z M 2,16.3 C 2,12.5 4.9,9.3 8.6,8.8 V 47 c -2.7,0.3 -5,1.7 -6.6,3.7 z m 0,40.1 c 0,-4.2 3.4,-7.6 7.6,-7.6 0.6,0 1,-0.4 1,-1 v -8.9 h 39.2 c 0.6,0 1,-0.4 1,-1 V 17.3 H 64 v 12.4 h -8.7 c -0.6,0 -1,0.4 -1,1 0,0.6 0.4,1 1,1 H 64 V 45.9 H 42.4 c -0.6,0 -1,0.4 -1,1 V 64 H 21.8 V 47.9 h 13.8 c 0.6,0 1,-0.4 1,-1 0,-0.6 -0.4,-1 -1,-1 H 20.8 c -0.6,0 -1,0.4 -1,1 V 64 H 9.6 C 5.4,64 2,60.6 2,56.4 Z M 43.4,64 V 47.9 H 64 V 64 Z"
       id="path75"
       inkscape:connector-curvature="0"
       style="fill:#000000" /></g></svg>
